X:1
T:Full fathom five
T:Full fathom five
T:Robert Johnson (c. 1583–1633)
T:William Shakespeare
T:© Geoff Gaherty 2016
T:© Geoff Gaherty 2016
C:Robert Johnson (c. 1583–1633)
Z:William Shakespeare
Z:© Geoff Gaherty 2016
%%score 1 2 3
L:1/8
M:2/2
K:C
V:1 treble nm="Tenor Recorder" snm="T. Rec."
V:2 bass nm="Viola da gamba" snm="Vla. d. g."
V:3 tab stafflines=6 strings=G2,C3,F3,A3,D4,G4 nostems nm="Lute" snm="Lt."
V:1
 G4 G2 G2 | G3 G ABcd | B6 Bc | d3 G B2 AG | A4 A3 B | c6 G2 | G2 A2 B4 | B2 c2 d2 A2 | c2 B2 A4 | %9
 z2 AA B2 AB | A3 B c4 | c2 A2 de f2 | e3 d d4 :: A2 ^F2 B2 G2 | c2 A2 d4 | d6 cB | A2 A2 c4- | %17
 c2 BA G2 G2 | B4 A4 | G8 :| d6 c2 | B4 A4 | G8 | z8 | e6 d2 | c4 B4 | A8 | z8 | d6 c2 | B4 A4 | %30
 G8- | G8 |] %32
V:2
 G,,4 C,2 B,,2 | C,2 B,,2 A,,4 | G,,6 G,,2 | G,3 ^F, E,4 | D,4 D,3 D, | A,,3 B,, C,4 | %6
 C,2 B,,A,, G,,4 | G,2 ^F,E, D,4 | E,^F, G,2 D,4 | z2 D,D, G,2 ^F,G, | F,2 E,D, C,4 | %11
 F,3 E, D,2 F,,G,, | A,,4 D,4 :: D,4 B,,4 | A,,4 G,,4 | B,,6 C,2 | D,4 A,,4- | A,,2 B,,2 C,4 | %18
 D,8 | G,,8 :| G,,8 | G,6 F,2 | E,4 D,4 | C,4 G,4 | C,8- | C,8 | D,6 C,2 | B,,4 A,,4 | G,,8 | D,8 | %30
 G,,8- | G,,8 |] %32
V:3
 [!6!G,,!4!G,]4 [!5!C,!4!G,]2 [!6!B,,!4!G,]2 | %1
 [!5!C,!4!G,]2 !6!B,, !4!G, [!6!A,,!3!A,] !3!B, !3!C !2!D | [!6!G,,!3!B,]6 [!6!G,,!3!B,] !3!C | %3
 [!4!G,!2!D]3 !4!G, [!5!E,!3!B,]2 !3!A, !4!G, | [!5!D,!3!A,]4 [!5!D,!3!A,]3 !3!B, | %5
 [!6!A,,!3!C]3 !6!B,, !5!C,2 !4!G,2 | [!5!C,!4!G,]2 [!6!B,,!3!A,] !6!A,, [!6!G,,!3!B,]4 | %7
 [!4!G,!3!B,]2 !3!C !5!E, [!5!D,!2!D]2 !3!A,2 | [!5!E,!3!C] !4!^F, [!4!G,!3!B,]2 [!5!D,!3!A,]4 | %9
 x2 [!5!D,!3!A,] !3!A, [!4!G,!3!B,]2 [!4!^F,!3!A,] !3!B, | %10
 [!4!^F,!3!A,]2 !5!E, !3!B, [!5!C,!3!C]4 | %11
 [!4!F,!3!C]2 !3!A, !5!E, [!5!D,!2!D] !2!E [!4!F,!2!F] !6!G,, | [!6!A,,!2!E]3 !2!D [!5!D,!2!D]4 :: %13
 [!5!D,!3!A,]2 [!5!D,!4!^F,]2 [!6!B,,!3!B,]2 [!5!C,!4!G,]2 | %14
 [!6!A,,!3!C]2 [!5!D,!3!A,]2 [!6!G,,!4!G,!2!D]2 !4!F, !5!E, | %15
 [!6!B,,!5!D,!2!D]2 [!5!D,!3!C] !3!B, !3!A,2 [!5!C,!4!G,!3!C] !3!B, | %16
 [!5!D,!4!^F,!3!A,]2 [!4!F,!3!A,]2 [!6!A,,!3!C]2 !3!B, !3!A, | %17
 [!6!A,,!4!G,!3!C]2 [!6!B,,!4!G,!3!B,] !3!A, [!5!C,!4!G,]2 !4!G,2 | %18
 [!5!D,!4!G,!3!B,]4 [!4!^F,!3!A,]4 | [!6!G,,!4!G,]8 :| [!6!G,,!2!D]6 !3!C2 | %21
 [!4!G,!3!B,]4 !3!A,2 !4!F,2 | [!5!E,!4!G,!1!G]4 !5!D,2 !2!F2 | [!5!C,!2!E]4 [!4!G,!2!D]4 | %24
 [!5!C,!2!E]6 !2!D2 | [!5!C,!4!A,!3!C]4 !3!B,2 !4!G,2 | [!5!D,!3!A,]6 !5!C,2 | %27
 [!6!B,,!2!D]4 !6!A,,2 !3!C2 | [!6!G,,!3!B,!2!D]6 !3!C2 | [!5!D,!4!G,!3!B,]4 [!4!^F,!3!A,]4 | %30
 [!6!G,,!4!G,]8- | [!6!G,,!4!G,]8 |] %32

